X:1665

T:Födelsedagsvals till Maja
R:Vals
C:Johannes Hultman
O:Umeå, Västerbotten
Z:Anton Teljebäck 2009-09-30
O:Västerbotten
M:3/4
L:1/8
K:D
|: f2 fe dA | B2 BA F2 | G2 GF GA | BA Bc de | f2 fe dA | B2 BA F2 | GF GA Bc | d2 d4 :| 
|: f2 fe fa | g2 gf g2 | g2 gf gb | ba ag a2 | f2 fe dA | B2 BA F2 | GF GA Bc | d2 d4 :| 
M:4/4
|: B2 B2 A2 A2 | B2 cd e3e | fe fa gf ed | e2 c2 d4 | B2 B2 A2 A2 | B2 cd e3e | fe fa gf ed | e2 c2 d4:|
(:musicend:)

[[!Andrastämma|Stämma]]
(:music:)
